src/img/atribuicao-05.svg

<svg width="45" height="43" viewBox="0 0 45 43" fill="none" xmlns="http://www.w3.org/2000/svg">
<path d="M42.49 12.5007H45V30.0054H42.49V12.5007Z" fill="#3B2027"/>
<path d="M39.9963 30.0056H42.49V32.4991H39.9963V30.0056Z" fill="#3B2027"/>
<path d="M39.9963 10.0071H42.49V12.5006H39.9963V10.0071Z" fill="#3B2027"/>
<path d="M34.9922 12.5007H39.9959V14.9944H34.9922V12.5007Z" fill="#3B2027"/>
<path d="M34.9922 32.499H39.9959V35.009H34.9922V32.499Z" fill="#3B2027"/>
<path d="M37.5028 10.0076V7.49742H34.9928V5.00391H30.0056V7.49742H27.4956V10.0076H30.0056V12.5011H34.9928V10.0076H37.5028Z" fill="#3B2027"/>
<path d="M30.0056 14.9944H34.9928V17.5044H30.0056V14.9944Z" fill="#3B2027"/>
<path d="M30.0056 35.009H34.9928V37.5027H30.0056V35.009Z" fill="#3B2027"/>
<path d="M25.0017 42.5062V39.9962H30.0054V37.5026H25.0017V19.998H19.998V22.5081H22.4917V39.9962H19.998V42.5062H25.0017Z" fill="#3B2027"/>
<path d="M25.002 17.5044H30.0056V19.998H25.002V17.5044Z" fill="#3B2027"/>
<path d="M25.0017 14.9944H27.4954V12.5007H25.0017V10.0071H19.998V12.5007H17.5044V14.9944H19.998V17.5044H25.0017V14.9944Z" fill="#3B2027"/>
<path d="M19.998 0V2.51001H17.5044V5.00367H19.998V7.49732H25.0017V5.00367H27.4954V2.51001H25.0017V0H19.998Z" fill="#3B2027"/>
<path d="M14.9944 37.5027H19.9981V39.9963H14.9944V37.5027Z" fill="#3B2027"/>
<path d="M14.9944 17.5044H19.9981V19.998H14.9944V17.5044Z" fill="#3B2027"/>
<path d="M10.0071 35.009H14.9942V37.5027H10.0071V35.009Z" fill="#3B2027"/>
<path d="M14.9945 10.0076H17.5045V7.49742H14.9945V5.00391H10.0073V7.49742H7.49731V10.0076H10.0073V12.5011H14.9945V10.0076Z" fill="#3B2027"/>
<path d="M10.0071 14.9944H14.9942V17.5044H10.0071V14.9944Z" fill="#3B2027"/>
<path d="M5.00391 32.499H10.0076V35.009H5.00391V32.499Z" fill="#3B2027"/>
<path d="M5.00391 12.5007H10.0076V14.9944H5.00391V12.5007Z" fill="#3B2027"/>
<path d="M2.49365 30.0056H5.00366V32.4991H2.49365V30.0056Z" fill="#3B2027"/>
<path d="M2.49365 10.0071H5.00366V12.5006H2.49365V10.0071Z" fill="#3B2027"/>
<path d="M0 12.5007H2.49365V30.0054H0V12.5007Z" fill="#3B2027"/>
</svg>

<svg width="45" height="43" fill="none" xmlns="http://www.w3.org/2000/svg"><path d="M42.49 12.5H45v17.505h-2.51V12.501zm-2.494 17.506h2.494v2.493h-2.494v-2.493zm0-19.999h2.494v2.494h-2.494v-2.494zM34.992 12.5h5.004v2.494h-5.004v-2.493zm0 19.999h5.004v2.51h-5.004v-2.51zm2.511-22.491v-2.51h-2.51V5.003h-4.987v2.493h-2.51v2.51h2.51V12.5h4.987v-2.493h2.51z" fill="#3B2027"/><path d="M30.006 14.994h4.987v2.51h-4.987v-2.51zm0 20.015h4.987v2.494h-4.987v-2.494zm-5.004 7.497v-2.51h5.003v-2.493h-5.003V19.998h-5.004v2.51h2.494v17.488h-2.494v2.51h5.004zm0-25.002h5.004v2.494h-5.004v-2.494zm0-2.51h2.493v-2.493h-2.493v-2.494h-5.004v2.494h-2.494v2.493h2.494v2.51h5.004v-2.51zM19.998 0v2.51h-2.494v2.494h2.494v2.493h5.004V5.004h2.493V2.51h-2.493V0h-5.004zm-5.004 37.503h5.004v2.493h-5.004v-2.493zm0-19.999h5.004v2.494h-5.004v-2.494zm-4.987 17.505h4.987v2.494h-4.987v-2.494zm4.988-25.001h2.51v-2.51h-2.51V5.003h-4.988v2.493h-2.51v2.51h2.51V12.5h4.988v-2.493zm-4.988 4.986h4.987v2.51h-4.987v-2.51zM5.004 32.499h5.004v2.51H5.004v-2.51z" fill="#3B2027"/><path d="M5.004 12.5h5.004v2.494H5.004v-2.493zm-2.51 17.506h2.51v2.493h-2.51v-2.493zm0-19.999h2.51v2.494h-2.51v-2.494z" fill="#3B2027"/><path d="M0 12.5h2.494v17.505H0V12.501z" fill="#3B2027"/></svg>
